X: 1
T:James Scott Skinner
C:J Murdoch Henderson
Z:Nigel Gatherer
M:4/4
L:1/8
K:A
D|C<A,A,>C E>FE<C|A>FE>C (3AGF (3EDC|D<B,B,>C D>FB>A|G>Bg>f (3efe (3dcB|
C<A,A,>C E>FE<C|A>FE>C (3AGF (3EDC|F<DF>A E>Ac>A|(3FBA G/EG/ A2 A||
f|e<Ac>f e<c c2|a>A>B (3ABG (3ABc|B<EG>B e>Bg>e|b>eg>f (3efe (3dcB|
c>Ac>f e<cc>A|a>ec>B (3ABG (3ABc|F<DF>A E>Ac>A| F/BA/ G/EG/ A2 A|]
